assets/Shopping bags/Flat/shopping_bags_flat.svg

<svg width="32" height="32" viewBox="0 0 32 32" fill="none" xmlns="http://www.w3.org/2000/svg">
<path d="M28.61 30H16.43C15.65 30 15.01 29.368 15.01 28.5755V15.4244C15.01 14.642 15.64 14 16.43 14H28.61C29.39 14 30.03 14.632 30.03 15.4244V28.5856C30.03 29.368 29.39 30 28.61 30Z" fill="#F9C23C"/>
<path d="M17.5625 16.0312C17.8386 16.0312 18.0625 16.2551 18.0625 16.5312V19.2146C18.0625 21.2501 20.0036 23.0156 22.5469 23.0156C25.1004 23.0156 27.0312 21.2508 27.0312 19.2146V16.5312C27.0312 16.2551 27.2551 16.0312 27.5312 16.0312C27.8074 16.0312 28.0312 16.2551 28.0312 16.5312V19.2146C28.0312 21.9362 25.5094 24.0156 22.5469 24.0156C19.5962 24.0156 17.0625 21.9369 17.0625 19.2146V16.5312C17.0625 16.2551 17.2864 16.0312 17.5625 16.0312Z" fill="#FF6723"/>
<path d="M18.13 27.9663H3.73C2.78 27.9663 2 27.1963 2 26.2363V9.72625C2 8.77625 2.77 7.99625 3.73 7.99625H18.13C19.08 7.99625 19.86 8.76625 19.86 9.72625V26.2463C19.86 27.1963 19.09 27.9663 18.13 27.9663Z" fill="#00A6ED"/>
<path d="M11.0156 2C7.74581 2 5 4.37533 5 7.42534V10.5C5 10.7761 5.22386 11 5.5 11C5.77614 11 6 10.7761 6 10.5V7.42534C6 5.03104 8.18865 3 11.0156 3C13.8426 3 16.0312 5.03104 16.0312 7.42534V10.5C16.0312 10.7761 16.2551 11 16.5312 11C16.8074 11 17.0312 10.7761 17.0312 10.5V7.42534C17.0312 4.37533 14.2854 2 11.0156 2ZM2 14.6906H19.86V17.0206H2V14.6906ZM2 19.1803H19.86V21.5103H2V19.1803ZM19.86 23.67H2V26H19.86V23.67Z" fill="#0074BA"/>
</svg>

<svg xmlns="http://www.w3.org/2000/svg" width="32" height="32" fill="none"><path fill="#F9C23C" d="M28.61 30H16.43c-.78 0-1.42-.632-1.42-1.424V15.424c0-.782.63-1.424 1.42-1.424h12.18c.78 0 1.42.632 1.42 1.424v13.162A1.42 1.42 0 0 1 28.61 30Z"/><path fill="#FF6723" d="M17.563 16.031a.5.5 0 0 1 .5.5v2.684c0 2.035 1.94 3.8 4.484 3.8 2.553 0 4.484-1.764 4.484-3.8V16.53a.5.5 0 0 1 1 0v2.684c0 2.721-2.522 4.8-5.484 4.8-2.95 0-5.485-2.078-5.485-4.8V16.53a.5.5 0 0 1 .5-.5Z"/><path fill="#00A6ED" d="M18.13 27.966H3.73c-.95 0-1.73-.77-1.73-1.73V9.726c0-.95.77-1.73 1.73-1.73h14.4c.95 0 1.73.77 1.73 1.73v16.52c0 .95-.77 1.72-1.73 1.72Z"/><path fill="#0074BA" d="M11.016 2C7.746 2 5 4.375 5 7.425V10.5a.5.5 0 0 0 1 0V7.425C6 5.031 8.189 3 11.016 3s5.015 2.031 5.015 4.425V10.5a.5.5 0 0 0 1 0V7.425c0-3.05-2.746-5.425-6.015-5.425ZM2 14.69h17.86v2.33H2v-2.33Zm0 4.49h17.86v2.33H2v-2.33Zm17.86 4.49H2V26h17.86v-2.33Z"/></svg>
